X:1
T:James Boick, a Strathspey
T:James Boick, a Strathspey
T:John Pringle
C:John Pringle
L:1/8
M:4/4
K:G
V:1 treble 
V:1
 D | G>AB>G FDDF | F>(AB^d) eB-Be/f/ | g>edc (B/c/d/B/) G>A | B>GAF BEE :: e/f/ | %6
 gb gf/e/ (^d/e/f/d/) Be/f/ | gba>g fdde/f/ | g>bB>G AB/G/{G} FG/A/ | B>GA>F BEE :| %10

